X:193
T: Das boese Stiefmuetterlein
N: Q0119
O: Mitteleuropa, Deutschland (DDR) , Sachsen, Grossenhain, Basslitz
R: Ballade, Waise, boese Stiefmutter, Klage am Grab, Geist
M: 3/4
L: 1/8
K: G
D | GDG2B2 | AGA2z
D | ADA2d2 | ^ced2z
d | AAAcc2 | BAG2
d2 | AAAcc2 | BAG2z
d | AAAcc2 | BAG2
d2 | AAAcc2 | BAG2z

@@@ Tune index: 1486
